X:1
T:Title
%%score { ( 1 3 ) | ( 2 4 ) }
L:1/8
M:3/4
K:Ab
V:1 treble nm="Grand Piano, Piano"
V:3 treble 
V:2 bass 
V:4 bass 
V:1
 z2 z2[Q:1/4=148] [A,C]2 | [A,CF]4 [B,=EG]2 | [CFA]4 [B,=EG]2 | [A,DF]4 [B,DG]2 | [G,C=E]4 C2 | %5
 [F,A,D]4 [F,A,C]2 | [F,DF]4 [F,B,D]2 | [F,A,C]6- | [F,A,C]4[K:treble] [A,C]2 | [A,CF]4 [B,=EG]2 | %10
 [CFA]4 [B,=EG]2 | [A,DF]4 [B,DG]2 | [G,C=E]4 [A,C]2 | [Fc]4 [FB]2 | [FA]4 [FB]2 | [EG]6- | %16
 [EG]4 [EG]2 | [Gd]4 [CAc]2 | [DGB]4 [CFA]2 | [DEG]4 [DFA]2 | [DGB]4 [CFA]2 | [CAc]4 [DGB]2 | %22
 [CFA]4 [B,=EG]2 | F4 G2 | A4 F2 | [=EB]4 [A,FA]2 | [B,DG]4 [A,DF]2 | [G,C=E]4 [A,CF]2 | %28
 [B,=EG]4[K:bass] [=E,C]2 | [F,A,D]4 [F,A,C]2 | [CFA]4 [B,=EG]2 | F6- |[M:2/4] F4 |[M:1/4] A2 | %34
[M:3/4] A4 F2 | A4 F2 | G6- | G4 B2 | B4 G2 | B4 G2 | A6- |[M:2/4] A4 |[M:1/4] [Ac]2 | %43
[M:3/4] [Ac]4 [GB]2 | [Gd]2 c2 B2 | A2 G2 [CFA]2 | [B,GB]4 [B,GB]2 | [B,FB]4 [CFA]2 | c2 z2 z2 | %49
 G2 F2 G2 | [CA]4 A2 | A4 G2 | B2 z2 z2 | F2 =E2 [A,CF]2 |[M:2/4] [B,=EG]4 | %55
[M:1/4][K:bass] [=E,C]2 |[M:3/4] D2 z2 z2 | c2 B2 d2 | c6- |[M:2/4] c4 |[M:1/4] [Ac]2 | %61
[M:3/4] [Ac]4 [GB]2 | [Gd]2 c2 B2 | A2 G2 [CFA]2 | [B,GB]4 [B,GB]2 | [B,FB]4 [CFA]2 | %66
 c2 z2 [A,CA]2 | G2 F2 G2 | [CA]4 A2 | A4 G2 | B2 A2 G2 | F2 =E2 [A,CF]2 |[M:2/4] [B,=EG]4 | %73
[M:1/4] C2 |[M:3/4] D2 C2 D2 | =E2 F2 G2 | F6- | F4 z2 |] %78
V:2
 z2 z2 F,2 | F,4 C,2 | C,4 C,2 | D,4 B,,2 | C,4 C,2 | F,,4 F,,2 | B,,4 B,,2 | F,,6- | F,,4 F,2 | %9
 F,4 C,2 | C,4 C,2 | D,4 B,,2 | C,4 C,2 | [C,A,]4 [D,D]2 | [D,D]4 [D,D]2 | [E,B,]6- | %16
 [E,B,]4 [E,B,]2 | [E,B,]4 E,2 | E,4 F,2 | E,4 E,2 | E,4 F,2 | E,4 E,2 | F,4 C,2 | %23
 [D,A,D]4 [E,G,D]2 | [F,A,C]4 [F,A,]2 | [C,G,]4 C,2 | B,,4 B,,2 | C,4 C,2 | C,4 C,2 | D,4 C,2 | %30
 C,4 C,2 | [F,A,]6- |[M:2/4] [F,A,]4 |[M:1/4] [F,A,C]2 |[M:3/4] [F,A,D]4 [D,A,D]2 | %35
 [D,F,D]4 [F,A,D]2 | [E,B,E]6- | [E,B,E]4 [E,G,E]2 | [E,G,E]4 [E,B,E]2 | [E,G,E]4 [E,B,D]2 | %40
 [A,C]6- |[M:2/4] [A,C]4 |[M:1/4] [F,C]2 |[M:3/4] [F,C]4 [E,D]2 | [E,B,]4 [G,B,E]2 | [F,CF]4 C,2 | %46
 E,4 E,2 | D,4 C,2 | z2[K:treble] B2[K:bass] A,,2 | [E,B,D]4 [E,B,D]2 | [A,,A,]4 [A,C]2 | %51
 [F,A,C]4 [E,B,E]2 | [E,B,]4 [G,B,D]2 | [F,A,C]4 F,2 |[M:2/4] C,4 |[M:1/4] C,2 | %56
[M:3/4] z2 C2 F,,2 | [F,A,C]4 [F,B,DF]2 | [F,A,F]6- |[M:2/4] [F,A,F]4 |[M:1/4] [F,C]2 | %61
[M:3/4] [F,C]4 [E,D]2 | [E,B,]4 [G,B,E]2 | [F,CF]4 C,2 | E,4 E,2 | D,4 C,2 | %66
 z2[K:treble] B2[K:bass] A,,2 | [E,B,D]4 [E,B,D]2 | [A,,A,]4 [A,C]2 | [F,A,C]4 [E,B,E]2 | %70
 [E,B,]4 [G,B,D]2 | [F,A,C]4 F,2 |[M:2/4] C,4 |[M:1/4] C,2 |[M:3/4] [B,,F,A,]4 [B,,F,A,]2 | %75
 C4- [C,B,C]2 | [F,A,]6- | [F,A,]4 z2 |] %78
V:3
 x6 | x6 | x6 | x6 | x6 | x6 | x6 | x6 | x4[K:treble] x2 | x6 | x6 | x6 | x6 | x6 | x6 | x6 | x6 | %17
 x6 | x6 | x6 | x6 | x6 | x6 | x6 | x6 | x6 | x6 | x6 | x4[K:bass] x2 | x6 | x6 | x6 |[M:2/4] x4 | %33
[M:1/4] x2 |[M:3/4] x6 | x6 | x6 | x6 | x6 | x6 | x6 |[M:2/4] x4 |[M:1/4] x2 |[M:3/4] x6 | x6 | %45
 x6 | x6 | x6 | [CE]4 [A,CA]2 | x6 | x6 | x6 | G2- [GA]2 G2 | x6 |[M:2/4] x4 |[M:1/4][K:bass] x2 | %56
[M:3/4] [F,A,]4 [F,A,D]2 | x6 | x6 |[M:2/4] x4 |[M:1/4] x2 |[M:3/4] x6 | x6 | x6 | x6 | x6 | %66
 [CE]4 z2 | x6 | x6 | x6 | G4 z2 | x6 |[M:2/4] x4 |[M:1/4] x2 |[M:3/4] x6 | x6 | x6 | x6 |] %78
V:4
 x6 | x6 | x6 | x6 | x6 | x6 | x6 | x6 | x6 | x6 | x6 | x6 | x6 | x6 | x6 | x6 | x6 | x6 | x6 | %19
 x6 | x6 | x6 | x6 | x6 | x6 | x6 | x6 | x6 | x6 | x6 | x6 | x6 |[M:2/4] x4 |[M:1/4] x2 | %34
[M:3/4] x6 | x6 | x6 | x6 | x6 | x6 | x6 |[M:2/4] x4 |[M:1/4] x2 |[M:3/4] x6 | x6 | x6 | x6 | x6 | %48
 A,,4[K:treble][K:bass] z2 | x6 | x6 | x6 | x6 | x6 |[M:2/4] x4 |[M:1/4] x2 |[M:3/4] F,,4 z2 | x6 | %58
 x6 |[M:2/4] x4 |[M:1/4] x2 |[M:3/4] x6 | x6 | x6 | x6 | x6 | A,,4[K:treble][K:bass] z2 | x6 | x6 | %69
 x6 | x6 | x6 |[M:2/4] x4 |[M:1/4] x2 |[M:3/4] x6 | [C,G,]4 z2 | x6 | x6 |] %78

